dist/img/sprites/hCloud.svg

<svg width="32" height="32" viewBox="0 0 32 32" fill="none" xmlns="http://www.w3.org/2000/svg">
<g clip-path="url(#clip0_730_5320)">
<path d="M26.47 14.23L26.25 14.2L26.23 13.98C25.74 8.33001 21.34 4.07001 16 4.07001C13.39 4.07001 10.86 5.11001 8.88 6.97001C7.31 8.44001 6.26 10.31 5.99 12.1L5.96 12.29L5.77 12.33C2.37 13.15 0 16.32 0 20.03C0 24.38 3.33 27.92 7.41 27.92H25.54C29.1 27.92 32 24.83 32 21.04C32 17.64 29.62 14.71 26.47 14.23ZM25.54 15.81C28.29 15.81 30.53 18.16 30.53 21.04C30.53 23.92 28.29 26.27 25.54 26.27H7.41C4.13 26.27 1.47 23.47 1.47 20.03C1.47 16.85 3.73 14.19 6.73 13.83L7.39 13.75V13.01C7.39 11.48 8.32 9.65001 9.83 8.24001C11.54 6.63001 13.74 5.73001 16.01 5.72001C18.38 5.72001 20.59 6.69001 22.26 8.45001C23.91 10.2 24.82 12.52 24.82 14.98V15.81H25.56H25.54Z" fill="#4B8125"/>
<path d="M19.8109 17.5C19.7409 17.42 19.6509 17.36 19.5609 17.32C19.3709 17.23 19.1509 17.24 18.9609 17.32C18.8709 17.36 18.7809 17.42 18.7109 17.5L16.7809 19.59V12.81C16.7809 12.58 16.7009 12.37 16.5509 12.21C16.2609 11.9 15.7409 11.9 15.4509 12.21C15.3009 12.37 15.2209 12.58 15.2209 12.81V19.59L13.2909 17.5C13.0009 17.19 12.4909 17.18 12.1909 17.5C12.0409 17.66 11.9609 17.87 11.9609 18.1C11.9609 18.33 12.0409 18.54 12.1909 18.7L15.4509 22.23C15.5209 22.31 15.6109 22.37 15.7009 22.41C15.7909 22.45 15.9009 22.48 16.0009 22.48C16.1009 22.48 16.2109 22.46 16.3009 22.42C16.3909 22.38 16.4809 22.32 16.5509 22.24L19.8109 18.71C19.8809 18.63 19.9409 18.54 19.9809 18.44C20.0209 18.34 20.0409 18.23 20.0409 18.11C20.0409 17.99 20.0209 17.89 19.9809 17.78C19.9409 17.68 19.8809 17.58 19.8109 17.51V17.5Z" fill="#4B8125"/>
</g>
<defs>
<clipPath id="clip0_730_5320">
<rect width="32" height="32" fill="white"/>
</clipPath>
</defs>
</svg>

<svg width="32" height="32" viewBox="0 0 32 32" fill="none" xmlns="http://www.w3.org/2000/svg"><g clip-path="url(#clip0_730_5320)" fill="#4B8125"><path d="M26.47 14.23l-.22-.03-.02-.22C25.74 8.33 21.34 4.07 16 4.07c-2.61 0-5.14 1.04-7.12 2.9-1.57 1.47-2.62 3.34-2.89 5.13l-.03.19-.19.04c-3.4.82-5.77 3.99-5.77 7.7 0 4.35 3.33 7.89 7.41 7.89h18.13c3.56 0 6.46-3.09 6.46-6.88 0-3.4-2.38-6.33-5.53-6.81zm-.93 1.58c2.75 0 4.99 2.35 4.99 5.23 0 2.88-2.24 5.23-4.99 5.23H7.41c-3.28 0-5.94-2.8-5.94-6.24 0-3.18 2.26-5.84 5.26-6.2l.66-.08v-.74c0-1.53.93-3.36 2.44-4.77 1.71-1.61 3.91-2.51 6.18-2.52 2.37 0 4.58.97 6.25 2.73 1.65 1.75 2.56 4.07 2.56 6.53v.83h.74-.02z"/><path d="M19.81 17.5a.738.738 0 00-1.1 0l-1.93 2.09v-6.78c0-.23-.08-.44-.23-.6a.767.767 0 00-1.1 0c-.15.16-.23.37-.23.6v6.78l-1.93-2.09a.758.758 0 00-1.1 0c-.15.16-.23.37-.23.6 0 .23.08.44.23.6l3.26 3.53a.775.775 0 00.55.25.725.725 0 00.55-.24l3.26-3.53c.07-.08.13-.17.17-.27.04-.1.06-.21.06-.33a.92.92 0 00-.06-.33c-.04-.1-.1-.2-.17-.27v-.01z"/></g><defs><clipPath id="clip0_730_5320"><path fill="#fff" d="M0 0h32v32H0z"/></clipPath></defs></svg>
